icon/ir/bishop.svg

<svg viewBox="0 0 24 24" stroke-width="1.5" fill="none" xmlns="http://www.w3.org/2000/svg" height="1em" width="1em">
  <path d="M7 17L17 17" stroke="currentColor" stroke-linecap="round"/>
  <path d="M9 12L15 12" stroke="currentColor" stroke-linecap="round"/>
  <path d="M12 3V2" stroke="currentColor" stroke-linecap="round"/>
  <path d="M11.5544 3.58151C10.633 4.83327 8.63764 7.82527 9.05721 9.75C9.45139 11.5583 11.019 12 12 12C12.981 12 14.5486 11.5583 14.9428 9.75C15.3624 7.82527 13.367 4.83327 12.4456 3.58151C12.2207 3.27594 11.7793 3.27594 11.5544 3.58151Z" stroke="currentColor" stroke-linecap="round"/>
  <path d="M17.8 22L6.2 22C5.70557 22 5.41559 21.434 5.7005 21.0299C7.01607 19.1641 9.76293 15.044 10.1929 12.5964C10.2502 12.27 10.5186 12 10.85 12L13.15 12C13.4814 12 13.7498 12.27 13.8071 12.5963C14.237 15.044 16.9839 19.1641 18.2995 21.0299C18.5844 21.434 18.2944 22 17.8 22Z" stroke="currentColor" stroke-linecap="round"/>
</svg>

<svg width="24" height="24" stroke-width="1.5" fill="none" xmlns="http://www.w3.org/2000/svg"><path d="M7 17h10M9 12h6M12 3V2M11.554 3.582c-.921 1.251-2.916 4.243-2.497 6.168C9.451 11.558 11.02 12 12 12c.981 0 2.549-.442 2.943-2.25.42-1.925-1.576-4.917-2.497-6.168a.548.548 0 0 0-.892 0ZM17.8 22H6.2a.617.617 0 0 1-.5-.97c1.316-1.866 4.063-5.986 4.493-8.434.057-.326.326-.596.657-.596h2.3c.331 0 .6.27.657.596.43 2.448 3.177 6.568 4.492 8.434a.617.617 0 0 1-.499.97Z" stroke="currentColor" stroke-linecap="round"/></svg>
